X:520
T: Das faule Weibchen (225a), S. 483
N: T0408
O: Luxemburg
S: Singendes Volk, Esch-Alzette, 1937 posth.]
N: Straen, fff Witry, 10.1.1933
R: Berufslied]
M: 2/4
L: 1/16
K: G
D2 | D2B2AA2G | F2G2A2
A2 | A2A2A2A2 | D4z2
D2 | d2d2d2d2 | d4A4 |
d2d2d2d2 | d2A2B2
d2 | BBG2A2F2 | G4z2

@@@ Tune index: 8574
